X: 1
T: Minstrel's Fancy, The
M: 4/4
L: 1/8
R: hornpipe
K: Dmaj
|:FG|AFAd BGBd|AFAd f2ed|cegf edcd|(3efe (3dcB A2FG|
AFAd BGBd|AFAd f2ed|cegf edce|d2dc d2:|
|:ef|gfge cABc|dcde f2ef|gfge cABc|(3dfe (3dcB A2FG|
AFAd BGBd|AFAd f2ed|cegf edce|d2dc d2:|
